src/assets/images/social/icon-facebook.svg

<svg width="24" height="24" viewBox="0 0 24 24" fill="none" xmlns="http://www.w3.org/2000/svg">
<path d="M22 12.0607C22 6.504 17.5233 2 12 2C6.47667 2 2 6.504 2 12.0607C2 17.0833 5.656 21.2453 10.4373 22V14.9693H7.89867V12.06H10.4373V9.844C10.4373 7.32267 11.93 5.92933 14.2147 5.92933C15.308 5.92933 16.4533 6.126 16.4533 6.126V8.602H15.1913C13.9493 8.602 13.5627 9.378 13.5627 10.174V12.0607H16.336L15.8927 14.9687H13.5627V22C18.344 21.2453 22 17.0833 22 12.0607Z" fill="white"/>
</svg>

<svg width="24" height="24" fill="none" xmlns="http://www.w3.org/2000/svg"><path d="M22 12.06C22 6.505 17.523 2 12 2S2 6.504 2 12.06c0 5.023 3.656 9.185 8.437 9.94v-7.03H7.9v-2.91h2.538V9.844c0-2.521 1.493-3.915 3.778-3.915 1.093 0 2.238.197 2.238.197v2.476h-1.262c-1.242 0-1.628.776-1.628 1.572v1.887h2.773l-.443 2.908h-2.33V22C18.344 21.245 22 17.083 22 12.06Z" fill="#fff"/></svg>
